X: 2194
T: MISS CHARLOTTE ANN LOWE
R: Reel
B: Kerr's v.2 p.22 #194
Z: 2016 John Chambers <jc:trillian.mit.edu>
M: C
L: 1/8
K: F
B |\
(AF)F2 (BG)G2 | (AF)F2 EGEC |\
(AF)F2 BAGB | AFGE F3 :|\
e |\
(fc)c2 Acfa |
bagf egec |\
[1 (fc)c2 Acfa bgfe f3 :|\
[2 dfeg fagf | ecde [ff2]d[cf] :|
